src/pos-icons/tent.svg

<svg height="24" viewBox="0 0 24 24" width="24" xmlns="http://www.w3.org/2000/svg"><path d="m4 6c0 1.19.39 2.27 1 3a3 3 0 0 1 -3-3 3 3 0 0 1 3-3c-.61.73-1 1.81-1 3m-2 15v-2h2.76l7.24-14.22 7.24 14.22h2.76v2zm10-11.81-5 9.81h10z"/></svg>

<?xml version="1.0" encoding="UTF-8"?><!DOCTYPE svg PUBLIC "-//W3C//DTD SVG 1.1//EN" "http://www.w3.org/Graphics/SVG/1.1/DTD/svg11.dtd"><svg xmlns="http://www.w3.org/2000/svg" xmlns:xlink="http://www.w3.org/1999/xlink" version="1.1" id="mdi-tent" width="24" height="24" viewBox="0 0 24 24"><path d="M4,6C4,7.19 4.39,8.27 5,9A3,3 0 0,1 2,6A3,3 0 0,1 5,3C4.39,3.73 4,4.81 4,6M2,21V19H4.76L12,4.78L19.24,19H22V21H2M12,9.19L7,19H17L12,9.19Z" /></svg>
